vendor/shopware/storefront/Resources/app/storefront/dist/assets/icon/default/error.svg

<svg xmlns="http://www.w3.org/2000/svg" width="24" height="24" viewBox="0 0 24 24">
  <path fill="#758CA3" fill-rule="evenodd" d="M10.5857864,12 L8.29289322,9.70710678 C7.90236893,9.31658249 7.90236893,8.68341751 8.29289322,8.29289322 C8.68341751,7.90236893 9.31658249,7.90236893 9.70710678,8.29289322 L12,10.5857864 L14.2928932,8.29289322 C14.6834175,7.90236893 15.3165825,7.90236893 15.7071068,8.29289322 C16.0976311,8.68341751 16.0976311,9.31658249 15.7071068,9.70710678 L13.4142136,12 L15.7071068,14.2928932 C16.0976311,14.6834175 16.0976311,15.3165825 15.7071068,15.7071068 C15.3165825,16.0976311 14.6834175,16.0976311 14.2928932,15.7071068 L12,13.4142136 L9.70710678,15.7071068 C9.31658249,16.0976311 8.68341751,16.0976311 8.29289322,15.7071068 C7.90236893,15.3165825 7.90236893,14.6834175 8.29289322,14.2928932 L10.5857864,12 Z M7.24264069,0 L16.7573593,0 C17.5530088,-1.46158436e-16 18.3160705,0.316070521 18.8786797,0.878679656 L23.1213203,5.12132034 C23.6839295,5.68392948 24,6.44699122 24,7.24264069 L24,16.7573593 C24,17.5530088 23.6839295,18.3160705 23.1213203,18.8786797 L18.8786797,23.1213203 C18.3160705,23.6839295 17.5530088,24 16.7573593,24 L7.24264069,24 C6.44699122,24 5.68392948,23.6839295 5.12132034,23.1213203 L0.878679656,18.8786797 C0.316070521,18.3160705 9.74389576e-17,17.5530088 0,16.7573593 L0,7.24264069 C2.12300709e-15,6.44699122 0.316070521,5.68392948 0.878679656,5.12132034 L5.12132034,0.878679656 C5.68392948,0.316070521 6.44699122,1.47842607e-15 7.24264069,0 Z M7.24264069,2 C6.9774242,2 6.72307028,2.10535684 6.53553391,2.29289322 L2.29289322,6.53553391 C2.10535684,6.72307028 2,6.9774242 2,7.24264069 L2,16.7573593 C2,17.0225758 2.10535684,17.2769297 2.29289322,17.4644661 L6.53553391,21.7071068 C6.72307028,21.8946432 6.9774242,22 7.24264069,22 L16.7573593,22 C17.0225758,22 17.2769297,21.8946432 17.4644661,21.7071068 L21.7071068,17.4644661 C21.8946432,17.2769297 22,17.0225758 22,16.7573593 L22,7.24264069 C22,6.9774242 21.8946432,6.72307028 21.7071068,6.53553391 L17.4644661,2.29289322 C17.2769297,2.10535684 17.0225758,2 16.7573593,2 L7.24264069,2 Z"/>
</svg>

<svg xmlns="http://www.w3.org/2000/svg" width="24" height="24" viewBox="0 0 24 24"><path fill="#758CA3" fill-rule="evenodd" d="m10.5858 12-2.293-2.2929c-.3904-.3905-.3904-1.0237 0-1.4142.3906-.3905 1.0238-.3905 1.4143 0L12 10.5858l2.2929-2.293c.3905-.3904 1.0237-.3904 1.4142 0 .3905.3906.3905 1.0238 0 1.4143L13.4142 12l2.293 2.2929c.3904.3905.3904 1.0237 0 1.4142-.3906.3905-1.0238.3905-1.4143 0L12 13.4142l-2.2929 2.293c-.3905.3904-1.0237.3904-1.4142 0-.3905-.3906-.3905-1.0238 0-1.4143L10.5858 12zM7.2426 0h9.5148a3 3 0 0 1 2.1213.8787l4.2426 4.2426A3 3 0 0 1 24 7.2426v9.5148a3 3 0 0 1-.8787 2.1213l-4.2426 4.2426A3 3 0 0 1 16.7574 24H7.2426a3 3 0 0 1-2.1213-.8787L.8787 18.8787A3 3 0 0 1 0 16.7574V7.2426a3 3 0 0 1 .8787-2.1213L5.1213.8787A3 3 0 0 1 7.2426 0zm0 2a1 1 0 0 0-.707.2929L2.2928 6.5355A1 1 0 0 0 2 7.2426v9.5148a1 1 0 0 0 .2929.707l4.2426 4.2427A1 1 0 0 0 7.2426 22h9.5148a1 1 0 0 0 .707-.2929l4.2427-4.2426A1 1 0 0 0 22 16.7574V7.2426a1 1 0 0 0-.2929-.707l-4.2426-4.2427A1 1 0 0 0 16.7574 2H7.2426z"/></svg>
